X: 41
T:Shave the Donkey (Bampton)
M:4/4
L:1/8
O:England; Oxfordshire; Bampton.
B:Lionel Bacon, A Handbook of Morris Dances
Z:http://www.themorrisring.org/music/handbook-morris-dances
P:A(AB3)3A
K:G
P:A
|:d2B2 dcBA|G2g2 e2g2|d2B2 dcBA|G2B2 G4:|
P:B
|:A3 c B2d2|A3 c B2d2|A3 B c2d2|dcBA G4:|

